X: 5187
T: Bristol
R: polka
M: 2/4
K: Dmajor
A|dd ee|d/c/B/A/ AB/c/|dd ee|f2 eA|
dd ee|d/c/B/A/ AB/c/|dd ea|d2 z:|
|:f/g/|aa ff|gg e2|fd Be|d2 cf/g/|
aa ff|gg e2|fd ea|d2 z:|

